X: 31947
T: Pearl O'Shaughnessy's
R: barndance
M: 4/4
K: Gmajor
|:d>f|a2 a2 a>^gb>a|f2 f2 f>ed>f|a2 g2 e2 c2|b2 a2 f>ed>f|
a2 a2 a>^gb>a|f2 f2 f>ed>f|a2 g2 e2 c>e|d2 d2 d2:|
|:a>g|f<a d2 d>fa>f|g<b e2 e2 g>f|e>dc>B A>cf>e|d>Ac>e b2 a>g|
f<a d2 d>fa>f|g<b e2 e2 g>f|(3ege c>B A>cf>e|d2 d2 d2:|

